packages/icons/svg/Fill/arrowhead-left.svg

<svg width="24" height="24" viewBox="0 0 24 24" fill="none" xmlns="http://www.w3.org/2000/svg">
<g id="Icon/Fill/arrowhead-left">
<path id="Mask" fill-rule="evenodd" clip-rule="evenodd" d="M18.7684 6.64019L14.2924 12.0112L18.6074 17.3732C18.9534 17.8032 18.8854 18.4322 18.4554 18.7792C18.2704 18.9282 18.0484 19.0002 17.8284 19.0002C17.5364 19.0002 17.2464 18.8722 17.0484 18.6272L12.2204 12.6272C11.9224 12.2562 11.9264 11.7252 12.2314 11.3602L17.2314 5.36019C17.5854 4.93519 18.2154 4.87919 18.6404 5.23219C19.0644 5.58519 19.1214 6.21619 18.7684 6.64019ZM10.232 5.35989C10.585 4.93589 11.215 4.87889 11.64 5.23189C12.064 5.58589 12.121 6.21589 11.768 6.63989L7.29204 12.0109L11.607 17.3729C11.953 17.8029 11.885 18.4329 11.455 18.7789C11.27 18.9279 11.049 18.9999 10.828 18.9999C10.536 18.9999 10.246 18.8729 10.049 18.6269L5.22104 12.6269C4.92204 12.2559 4.92704 11.7259 5.23204 11.3599L10.232 5.35989Z" fill="#000000"/>
</g>
</svg>

<svg fill="none" height="24" viewBox="0 0 24 24" width="24" xmlns="http://www.w3.org/2000/svg"><path clip-rule="evenodd" d="m18.7685 6.64031-4.476 5.37099 4.315 5.362c.346.43.278 1.059-.152 1.406-.185.149-.407.221-.627.221-.292 0-.582-.128-.78-.373l-4.828-6c-.298-.371-.294-.902.011-1.267l5-5.99999c.354-.425.984-.481 1.409-.128.424.353.481.984.128 1.408zm-8.5364-1.2803c.353-.424.983-.481 1.408-.128.424.354.481.984.128 1.408l-4.47598 5.37099 4.31498 5.362c.346.43.278 1.06-.152 1.406-.185.149-.406.221-.627.221-.292 0-.582-.127-.779-.373l-4.82798-6c-.299-.371-.294-.901.011-1.267z" fill="#6b7280" fill-rule="evenodd"/></svg>
